public/assets/icons/share.svg

<svg width="30" height="30" viewBox="0 0 30 30" fill="none" xmlns="http://www.w3.org/2000/svg">
<circle opacity="0.1" cx="15" cy="15" r="15" fill="#F9AB72"/>
<g clip-path="url(#clip0_195_3932)">
<mask id="path-2-inside-1_195_3932" fill="white">
<path d="M19.3865 16.9624C18.4535 16.9624 17.6183 17.388 17.0641 18.0551L13.4592 16.0084C13.5743 15.6847 13.633 15.3437 13.6329 15.0002C13.633 14.6567 13.5743 14.3157 13.4592 13.9921L17.0638 11.9449C17.618 12.6122 18.4533 13.038 19.3864 13.038C21.0506 13.038 22.4046 11.6835 22.4046 10.0185C22.4047 8.35406 21.0507 7 19.3865 7C17.722 7 16.3679 8.35406 16.3679 10.0184C16.3679 10.3719 16.4294 10.7112 16.5416 11.0268L12.9367 13.0741C12.3826 12.4071 11.5475 11.9816 10.6147 11.9816C8.95004 11.9816 7.5957 13.3357 7.5957 15.0001C7.5957 16.6645 8.95004 18.0186 10.6147 18.0186C11.5475 18.0186 12.3825 17.5931 12.9367 16.9262L16.5416 18.973C16.4265 19.2968 16.3677 19.6379 16.3678 19.9815C16.3678 21.6459 17.722 22.9999 19.3864 22.9999C21.0507 22.9999 22.4047 21.6458 22.4047 19.9815C22.4047 18.3168 21.0507 16.9624 19.3865 16.9624ZM19.3865 8.05626C20.4683 8.05626 21.3485 8.93648 21.3485 10.0184C21.3485 11.101 20.4683 11.9816 19.3865 11.9816C18.3045 11.9816 17.4242 11.101 17.4242 10.0184C17.4242 8.93648 18.3045 8.05626 19.3865 8.05626ZM10.6148 16.9624C9.53254 16.9624 8.65204 16.0821 8.65204 15.0002C8.65204 13.9182 9.53254 13.038 10.6148 13.038C11.6966 13.038 12.5767 13.9182 12.5767 15.0002C12.5767 16.0821 11.6965 16.9624 10.6148 16.9624ZM19.3865 21.9437C18.3045 21.9437 17.4242 21.0634 17.4242 19.9816C17.4242 18.8992 18.3045 18.0187 19.3865 18.0187C20.4683 18.0187 21.3485 18.8992 21.3485 19.9816C21.3485 21.0634 20.4683 21.9437 19.3865 21.9437Z"/>
</mask>
<path d="M19.3865 16.9624C18.4535 16.9624 17.6183 17.388 17.0641 18.0551L13.4592 16.0084C13.5743 15.6847 13.633 15.3437 13.6329 15.0002C13.633 14.6567 13.5743 14.3157 13.4592 13.9921L17.0638 11.9449C17.618 12.6122 18.4533 13.038 19.3864 13.038C21.0506 13.038 22.4046 11.6835 22.4046 10.0185C22.4047 8.35406 21.0507 7 19.3865 7C17.722 7 16.3679 8.35406 16.3679 10.0184C16.3679 10.3719 16.4294 10.7112 16.5416 11.0268L12.9367 13.0741C12.3826 12.4071 11.5475 11.9816 10.6147 11.9816C8.95004 11.9816 7.5957 13.3357 7.5957 15.0001C7.5957 16.6645 8.95004 18.0186 10.6147 18.0186C11.5475 18.0186 12.3825 17.5931 12.9367 16.9262L16.5416 18.973C16.4265 19.2968 16.3677 19.6379 16.3678 19.9815C16.3678 21.6459 17.722 22.9999 19.3864 22.9999C21.0507 22.9999 22.4047 21.6458 22.4047 19.9815C22.4047 18.3168 21.0507 16.9624 19.3865 16.9624ZM19.3865 8.05626C20.4683 8.05626 21.3485 8.93648 21.3485 10.0184C21.3485 11.101 20.4683 11.9816 19.3865 11.9816C18.3045 11.9816 17.4242 11.101 17.4242 10.0184C17.4242 8.93648 18.3045 8.05626 19.3865 8.05626ZM10.6148 16.9624C9.53254 16.9624 8.65204 16.0821 8.65204 15.0002C8.65204 13.9182 9.53254 13.038 10.6148 13.038C11.6966 13.038 12.5767 13.9182 12.5767 15.0002C12.5767 16.0821 11.6965 16.9624 10.6148 16.9624ZM19.3865 21.9437C18.3045 21.9437 17.4242 21.0634 17.4242 19.9816C17.4242 18.8992 18.3045 18.0187 19.3865 18.0187C20.4683 18.0187 21.3485 18.8992 21.3485 19.9816C21.3485 21.0634 20.4683 21.9437 19.3865 21.9437Z" fill="#333F4E"/>
<path d="M17.0641 18.0551L15.9516 20.0147L17.592 20.9461L18.7975 19.495L17.0641 18.0551ZM13.4592 16.0084L11.3361 15.2533L10.7026 17.0345L12.3466 17.9679L13.4592 16.0084ZM13.6329 15.0002L11.3795 14.9993L11.3795 15.0012L13.6329 15.0002ZM13.4592 13.9921L12.3463 12.0327L10.7027 12.9662L11.3361 14.7472L13.4592 13.9921ZM17.0638 11.9449L18.7975 10.5054L17.592 9.0535L15.951 9.98546L17.0638 11.9449ZM22.4046 10.0185L20.1512 10.0183V10.0185H22.4046ZM16.5416 11.0268L17.6544 12.9862L19.2979 12.0528L18.6648 10.272L16.5416 11.0268ZM12.9367 13.0741L11.2035 14.514L12.409 15.9652L14.0495 15.0335L12.9367 13.0741ZM12.9367 16.9262L14.0493 14.9667L12.4089 14.0353L11.2035 15.4862L12.9367 16.9262ZM16.5416 18.973L18.6647 19.7283L19.2983 17.947L17.6542 17.0135L16.5416 18.973ZM16.3678 19.9815L18.6212 19.9815L18.6212 19.9804L16.3678 19.9815ZM22.4047 19.9815L20.1513 19.9814V19.9815H22.4047ZM19.3865 14.709C17.7526 14.709 16.2929 15.457 15.3308 16.6153L18.7975 19.495C18.9437 19.319 19.1544 19.2158 19.3865 19.2158V14.709ZM18.1767 16.0956L14.5717 14.0488L12.3466 17.9679L15.9516 20.0147L18.1767 16.0956ZM15.5822 16.7635C15.7837 16.1971 15.8865 15.6004 15.8862 14.9992L11.3795 15.0012C11.3796 15.0871 11.3649 15.1724 11.3361 15.2533L15.5822 16.7635ZM15.8862 15.0011C15.8865 14.4 15.7837 13.8034 15.5822 13.237L11.3361 14.7472C11.3649 14.8281 11.3796 14.9134 11.3795 14.9993L15.8862 15.0011ZM14.572 15.9515L18.1767 13.9043L15.951 9.98546L12.3463 12.0327L14.572 15.9515ZM15.3302 13.3844C16.2923 14.5431 17.7523 15.2913 19.3864 15.2913V10.7846C19.1543 10.7846 18.9436 10.6813 18.7975 10.5054L15.3302 13.3844ZM19.3864 15.2913C22.2959 15.2913 24.658 12.9271 24.658 10.0185H20.1512C20.1512 10.4398 19.8053 10.7846 19.3864 10.7846V15.2913ZM24.658 10.0187C24.6582 7.10974 22.2954 4.74664 19.3865 4.74664V9.25336C19.8061 9.25336 20.1513 9.59838 20.1512 10.0183L24.658 10.0187ZM19.3865 4.74664C16.4776 4.74664 14.1145 7.10946 14.1145 10.0184H18.6213C18.6213 9.59866 18.9664 9.25336 19.3865 9.25336V4.74664ZM14.1145 10.0184C14.1145 10.6354 14.2222 11.2296 14.4184 11.7816L18.6648 10.272C18.6367 10.1928 18.6213 10.1085 18.6213 10.0184H14.1145ZM15.4288 9.06735L11.8239 11.1147L14.0495 15.0335L17.6544 12.9862L15.4288 9.06735ZM14.67 11.6341C13.7078 10.476 12.2482 9.72826 10.6147 9.72826V14.235C10.8467 14.235 11.0574 14.3382 11.2035 14.514L14.67 11.6341ZM10.6147 9.72826C7.70592 9.72826 5.34234 12.0908 5.34234 15.0001H9.84907C9.84907 14.5806 10.1942 14.235 10.6147 14.235V9.72826ZM5.34234 15.0001C5.34234 17.9094 7.70596 20.272 10.6147 20.272V15.7652C10.1941 15.7652 9.84907 15.4196 9.84907 15.0001H5.34234ZM10.6147 20.272C12.2482 20.272 13.7078 19.5242 14.6699 18.3662L11.2035 15.4862C11.0573 15.6621 10.8467 15.7652 10.6147 15.7652V20.272ZM11.8241 18.8857L15.429 20.9326L17.6542 17.0135L14.0493 14.9667L11.8241 18.8857ZM14.4186 18.2178C14.2171 18.7843 14.1142 19.3812 14.1145 19.9825L18.6212 19.9804C18.6212 19.8945 18.6359 19.8092 18.6647 19.7283L14.4186 18.2178ZM14.1145 19.9815C14.1145 22.8905 16.4776 25.2533 19.3864 25.2533V20.7466C18.9664 20.7466 18.6212 20.4013 18.6212 19.9815H14.1145ZM19.3864 25.2533C22.2953 25.2533 24.658 22.8901 24.658 19.9815H20.1513C20.1513 20.4015 19.806 20.7466 19.3864 20.7466V25.2533ZM24.658 19.9816C24.6581 17.0729 22.2958 14.709 19.3865 14.709V19.2158C19.8056 19.2158 20.1513 19.5607 20.1513 19.9814L24.658 19.9816ZM19.3865 10.3096C19.2236 10.3096 19.0951 10.1808 19.0951 10.0184H23.6018C23.6018 7.6922 21.713 5.8029 19.3865 5.8029V10.3096ZM19.0951 10.0184C19.0951 9.85774 19.2226 9.72826 19.3865 9.72826V14.235C21.7141 14.235 23.6018 12.3442 23.6018 10.0184H19.0951ZM19.3865 9.72826C19.5498 9.72826 19.6775 9.85738 19.6775 10.0184H15.1708C15.1708 12.3446 17.0591 14.235 19.3865 14.235V9.72826ZM19.6775 10.0184C19.6775 10.1811 19.5488 10.3096 19.3865 10.3096V5.8029C17.0601 5.8029 15.1708 7.69183 15.1708 10.0184H19.6775ZM10.6148 14.709C10.7765 14.709 10.9054 14.837 10.9054 15.0002H6.39867C6.39867 17.3272 8.28862 19.2158 10.6148 19.2158V14.709ZM10.9054 15.0002C10.9054 15.1633 10.7765 15.2913 10.6148 15.2913V10.7846C8.28862 10.7846 6.39867 12.6731 6.39867 15.0002H10.9054ZM10.6148 15.2913C10.4517 15.2913 10.3233 15.1623 10.3233 15.0002H14.8301C14.8301 12.674 12.9415 10.7846 10.6148 10.7846V15.2913ZM10.3233 15.0002C10.3233 14.8379 10.4517 14.709 10.6148 14.709V19.2158C12.9414 19.2158 14.8301 17.3263 14.8301 15.0002H10.3233ZM19.3865 19.6904C19.5489 19.6904 19.6775 19.8188 19.6775 19.9816H15.1708C15.1708 22.308 17.0601 24.1971 19.3865 24.1971V19.6904ZM19.6775 19.9816C19.6775 20.1431 19.5496 20.272 19.3865 20.272V15.7653C17.0593 15.7653 15.1708 17.6554 15.1708 19.9816H19.6775ZM19.3865 20.272C19.2228 20.272 19.0951 20.1427 19.0951 19.9816H23.6018C23.6018 17.6557 21.7138 15.7653 19.3865 15.7653V20.272ZM19.0951 19.9816C19.0951 19.8192 19.2236 19.6904 19.3865 19.6904V24.1971C21.7131 24.1971 23.6018 22.3077 23.6018 19.9816H19.0951Z" fill="#F9AB72" mask="url(#path-2-inside-1_195_3932)"/>
</g>
<defs>
<clipPath id="clip0_195_3932">
<rect width="16" height="16" fill="white" transform="translate(7 7)"/>
</clipPath>
</defs>
</svg>

<svg xmlns="http://www.w3.org/2000/svg" width="30" height="30" fill="none"><circle cx="15" cy="15" r="15" fill="#F9AB72" opacity=".1"/><g clip-path="url(#a)"><mask id="b" fill="#fff"><path d="M19.387 16.962c-.934 0-1.769.426-2.323 1.093l-3.605-2.047a3 3 0 0 0 0-2.016l3.605-2.047a3.01 3.01 0 0 0 2.322 1.093 3.02 3.02 0 0 0 3.019-3.02A3.02 3.02 0 0 0 19.387 7a3.022 3.022 0 0 0-2.845 4.027l-3.605 2.047a3.01 3.01 0 0 0-2.322-1.092A3.02 3.02 0 0 0 7.595 15a3.02 3.02 0 0 0 3.02 3.019c.932 0 1.768-.426 2.322-1.093l3.605 2.047A3.022 3.022 0 0 0 19.387 23a3.02 3.02 0 0 0 3.018-3.018 3.02 3.02 0 0 0-3.018-3.02m0-8.906c1.081 0 1.962.88 1.962 1.962 0 1.083-.88 1.964-1.962 1.964a1.965 1.965 0 0 1-1.963-1.964c0-1.082.88-1.962 1.963-1.962m-8.772 8.906A1.965 1.965 0 0 1 8.652 15c0-1.082.88-1.962 1.963-1.962 1.082 0 1.962.88 1.962 1.962s-.88 1.962-1.962 1.962m8.772 4.982a1.965 1.965 0 0 1-1.963-1.962c0-1.083.88-1.963 1.963-1.963 1.081 0 1.962.88 1.962 1.963 0 1.081-.88 1.962-1.962 1.962"/></mask><path fill="#333F4E" d="M19.387 16.962c-.934 0-1.769.426-2.323 1.093l-3.605-2.047a3 3 0 0 0 0-2.016l3.605-2.047a3.01 3.01 0 0 0 2.322 1.093 3.02 3.02 0 0 0 3.019-3.02A3.02 3.02 0 0 0 19.387 7a3.022 3.022 0 0 0-2.845 4.027l-3.605 2.047a3.01 3.01 0 0 0-2.322-1.092A3.02 3.02 0 0 0 7.595 15a3.02 3.02 0 0 0 3.02 3.019c.932 0 1.768-.426 2.322-1.093l3.605 2.047A3.022 3.022 0 0 0 19.387 23a3.02 3.02 0 0 0 3.018-3.018 3.02 3.02 0 0 0-3.018-3.02m0-8.906c1.081 0 1.962.88 1.962 1.962 0 1.083-.88 1.964-1.962 1.964a1.965 1.965 0 0 1-1.963-1.964c0-1.082.88-1.962 1.963-1.962m-8.772 8.906A1.965 1.965 0 0 1 8.652 15c0-1.082.88-1.962 1.963-1.962 1.082 0 1.962.88 1.962 1.962s-.88 1.962-1.962 1.962m8.772 4.982a1.965 1.965 0 0 1-1.963-1.962c0-1.083.88-1.963 1.963-1.963 1.081 0 1.962.88 1.962 1.963 0 1.081-.88 1.962-1.962 1.962"/><path fill="#F9AB72" d="m17.064 18.055-1.112 1.96 1.64.931 1.206-1.451zm-3.605-2.047-2.123-.755-.633 1.782 1.644.933zM13.633 15H11.38V15zm-.174-1.008-1.113-1.96-1.643.934.633 1.781zm3.605-2.047 1.733-1.44-1.205-1.452-1.641.932zm5.34-1.927h-2.253zm-5.862 1.009 1.112 1.96 1.644-.934-.633-1.781zm-3.605 2.047-1.733 1.44 1.205 1.451 1.64-.931zm0 3.852 1.112-1.96-1.64-.93-1.206 1.45zm3.605 2.047 2.123.755.633-1.781-1.644-.933zm-.174 1.009h2.253v-.002zm6.037 0H20.15zm-3.018-5.273a5.27 5.27 0 0 0-4.056 1.906l3.467 2.88a.76.76 0 0 1 .589-.28zm-1.21 1.387-3.605-2.047-2.225 3.919 3.605 2.047zm-2.595.668a5.3 5.3 0 0 0 .304-1.765l-4.506.002a.8.8 0 0 1-.044.252zM15.886 15c0-.601-.102-1.198-.304-1.764l-4.246 1.51a.8.8 0 0 1 .043.252zm-1.314.95 3.605-2.047-2.226-3.919-3.605 2.048zm.758-2.567a5.27 5.27 0 0 0 4.056 1.907v-4.506a.76.76 0 0 1-.588-.28zm4.056 1.907a5.276 5.276 0 0 0 5.272-5.273h-4.507a.77.77 0 0 1-.765.767zm5.272-5.272a5.275 5.275 0 0 0-5.271-5.272v4.506c.42 0 .764.345.764.765zm-5.271-5.272a5.275 5.275 0 0 0-5.273 5.271h4.507c0-.42.345-.765.766-.765zm-5.273 5.271c0 .617.108 1.212.304 1.764l4.247-1.51a.8.8 0 0 1-.044-.254zm1.315-.95-3.605 2.047 2.226 3.919 3.604-2.048zm-.759 2.566a5.27 5.27 0 0 0-4.055-1.906v4.507a.76.76 0 0 1 .588.279zm-4.055-1.906A5.276 5.276 0 0 0 5.342 15H9.85c0-.42.345-.765.766-.765zM5.342 15a5.276 5.276 0 0 0 5.273 5.272v-4.507A.77.77 0 0 1 9.849 15zm5.273 5.272a5.27 5.27 0 0 0 4.055-1.906l-3.466-2.88a.76.76 0 0 1-.59.28zm1.21-1.386 3.604 2.047 2.225-3.92-3.605-2.046zm2.594-.668a5.3 5.3 0 0 0-.305 1.765l4.507-.003q0-.128.044-.252zm-.305 1.764a5.275 5.275 0 0 0 5.272 5.271v-4.506a.77.77 0 0 1-.765-.765zm5.272 5.271a5.275 5.275 0 0 0 5.272-5.271h-4.507c0 .42-.345.765-.765.765zm5.272-5.271a5.275 5.275 0 0 0-5.271-5.273v4.507c.419 0 .764.345.764.765zm-5.271-9.672a.29.29 0 0 1-.292-.292h4.507a4.22 4.22 0 0 0-4.215-4.215zm-.292-.292c0-.16.128-.29.292-.29v4.507a4.22 4.22 0 0 0 4.215-4.217zm.292-.29c.163 0 .29.13.29.29h-4.506a4.22 4.22 0 0 0 4.216 4.217zm.29.29a.29.29 0 0 1-.29.292V5.803a4.22 4.22 0 0 0-4.216 4.215zm-9.062 4.691c.162 0 .29.128.29.291H6.4a4.22 4.22 0 0 0 4.216 4.216zm.29.291a.29.29 0 0 1-.29.291v-4.506A4.22 4.22 0 0 0 6.399 15zm-.29.291a.29.29 0 0 1-.292-.29h4.507a4.22 4.22 0 0 0-4.215-4.216zm-.292-.29a.29.29 0 0 1 .292-.292v4.507A4.22 4.22 0 0 0 14.83 15zm9.064 4.69c.162 0 .29.128.29.29h-4.506a4.22 4.22 0 0 0 4.216 4.216zm.29.29c0 .162-.127.291-.29.291v-4.507a4.22 4.22 0 0 0-4.216 4.217zm-.29.291a.29.29 0 0 1-.292-.29h4.507a4.22 4.22 0 0 0-4.215-4.217zm-.292-.29a.29.29 0 0 1 .292-.292v4.507a4.22 4.22 0 0 0 4.215-4.215z" mask="url(#b)"/></g><defs><clipPath id="a"><path fill="#fff" d="M7 7h16v16H7z"/></clipPath></defs></svg>
